X: 171
M:4/4
L:1/8
Q:160
K:Gm
|: A2 A2 f4| =e2 f2 g2 fe|d2 d2 g2 a2| b2 c'b a2 g2|f2 f2 f4|^F3 g A3 c|B2 G2 G2 A2|B2 cB A2 G2:|

